X: 1
T: Första valsen på Finnskoga
R: waltz
M: 3/4
L: 1/8
Q: 1/4=150
K: Dm
DF | A3B A2 | AF D4 | d3e d2 | dc A4 |[M: 2/4] B3G |[M: 3/4] A4 G2 | F2 A3G |[M: 4/4] FG EF D2 DF |
 [M: 3/4] A3B A2 | AF D4 | d3e d2 | dc A4 |[M: 2/4] B3G 
